X:204
T: Humours of Passage
N: O'Farrell's Pocket Companion v.3 (Sky ed. p.103)
N: "Irish"
M: 6/8
R: jig
L: 1/8
Q: 320
K: G
E/F/| G2G GEG| A2A AFA| BcB BAF| B2E E2F|
GAG GEG| ABA AFA| BcB BAF| A2D D2 :|
f| g2e faf| g2e e2f| gfg ege| f2d d2f|
g2e faf| gfg efg| fdB BAF| A2D D2 :|
